X:381
T:Emma Lake March
M:C
C:© Paul Gitlitz 2015
R:march
K:D
FG|:"D"ABAG "Bm"FGAB|"A"AGFE "D"D2CD|"A7"EFED "Bm"CDEF|"E"EDCB, "A"A,2FG|!
"D"ABAG "Bm"FGAB|"A"AGFE "D"D3D|"Em"E2EF "A7"GFE2|1"D"D6FG:|2"D"D6 A,A,||!
"D"D2DD F2A2|"Bm"d6dc|"G"BABc dcB2|"D"A6GA|!
"G"B=cBA GAB2|"D"ABAG FGA2|"G"G2 (3FGF "Em"E2 (3DED|"A"C2 B,2 "A7"A,2Bc|!
"D"d2dd dcB2|A6dc|"G"BABc dcB2|"D"A6GA|!
"G"B=cBA GAB2|"D"ABAG FE D2|"Em"E2EF "A7"GFE2|"D"D8|]
